X:243
T:Peggy on the settle
T:Kitty Clover
T:Boil the breakfast early
R:Reel
O:Ireland
B:O'Neill's 1245
S:O'Neill's 1245
Z:Transcription:Trish O'Neil,arrangement, chords:Mike Long
M:C|
L:1/8
K:G
"C"eg"D"fd "Am"eA~A2|"G"edBd "Am"eA~A2|\
"C"eg"D"fd "Am"eA~A2|"G"BGdc BGBd:|\
"Em"edef "G"g2ag|"Em"edef "G"gdBd|
"Em"edef "G"g2ga|"G"bgaf gdBd|\
"Em"edef "G"g2ag|"Em"edef "G"gdBd|"G"gdBd g2ga|bgaf gdBd|]
